X:9096
T:La-bas dans la prairie - bourree
C:traditionell
Z:abc transcription Simon Wascher
N:please mail errors to: simon.wascher@chello.at
M:2/4
L:1/8
K:Gm
|:B|GA Bc|d3e|dc AB|AG G3/2F/2|
GA Bc|d3e|dc AB|A2 Gd||
|:cA BG|^FF GG|A3A/2B/2|cA Bc|
d3/2c/2 de|dc AB|1G3d:|2G3|]


